X:1
T:I Rest in Thy Love
T:I Rest in Thy Love
T:Harry Sanders
T:Robert W. Todd, 1876
T:Public Domain Courtesy of the Cyber Hymnal™
T:Public Domain Courtesy of the Cyber Hymnal™
C:Harry Sanders
Z:Public Domain
Z:Courtesy of the Cyber Hymnal™
%%score ( 1 2 ) ( 3 4 )
L:1/8
Q:1/4=110
M:3/4
K:Ab
V:1 treble 
V:2 treble 
V:3 bass 
V:4 bass 
V:1
 [CE]2 | [Ec]3 [DB] [CA]2 | [FA]2 [EG]2 [DF]2 | [CE]3 [EA] [EB]2 | [Ec]4 [CE]2 | [Ec]3 [Ec] [Ec]2 | %6
w: 1.~While|way- worn and|wea- ry, I|jour- ney a-|long, Dear|Sav- ior, Thy|
w: 2.~While|bur- dened with|sor- row, and|la- den with|woe, Dear|Sav- ior, to|
 [Ec]2 [DB]2 [EA]2 | [=DA]2 [DG]2 [DA]2 | [EB]4 E2 | [Ec]3 [DB] [CA]2 | [FA]2 [EG]2 [DF]2 | %11
w: love is the|theme of my|song; Thy|smile is my|bea- con, as|
w: Thee, ’neath Thy|cross will I|go; I|think of Thy|sor- row, and|
 [CE]2 [EA]2 [_Gc]2 | !fermata![Fd]4 [DF]2 | [Fd]2 [Ec]2 [FB]2 | [EA]2 !fermata![EG]2 [DF]2 | %15
w: on- ward I|move; Thy|cross is my|shel- ter, I|
w: an- guish for|me, And|yield at Thy|bid- ding, my|
 [DE]3 [DG] [DB]2 | [CA]4 ||"^Refrain" E2 | [EG]2 [EG]2 [FA]2 | [GB]6- | [GB]4 E2 | %21
w: rest in Thy|love.|I|rest in Thy|love,|* yes,|
w: sor- rows to|Thee.|||||
 [CA]2 [CA]2 [DB]2 | [Ec]6- | [Ec]4 E2 | [Ec]2 [DB]2 [CA]2 | [FA]2 [EG]2 [DF]2 | [CE]3 [EA] [EB]2 | %27
w: rest in Thy|love,|* Tho’|way- worn and|wea- ry, I|rest in Thy|
w: ||||||
 [Ec]6 | [GB]2 [GB]2 [GB]2 | [GB]6- | [GB]4 E2 |"^riten." [EG]2"^pp" [EA]2 [EB]2 | [EA]6- | %33
w: love,|Rest in Thy|love,|* yes,|rest in Thy|love.|
w: ||||||
 [EA]4 |] %34
w: |
w: |
V:2
 x2 | x6 | x6 | x6 | x6 | x6 | x6 | x6 | x4 E2 | x6 | x6 | x6 | x6 | x6 | x6 | x6 | x4 || E2 | x6 | %19
 x6 | x4 (ED) | x6 | x6 | x4 E2 | x6 | x6 | x6 | x6 | x6 | x6 | x4 E2 | x6 | x6 | x4 |] %34
V:3
 [A,,A,]2 | [A,,A,]3 [A,,A,] [A,,A,]2 | [D,A,]2 [D,A,]2 [D,A,]2 | [A,,A,]3 [A,,A,] [E,G,]2 | %4
w: ~|~ ~ ~|~ ~ ~|~ ~ ~|
 [A,,A,]4 [A,,A,]2 | [A,,A,]3 [A,,A,] [A,,A,]2 | [A,,A,]2 [A,,A,]2 [A,,C]2 | %7
w: ~ ~|~ ~ ~|~ ~ ~|
 [F,B,]2 [F,B,]2 [F,B,]2 | [E,G,]4 E,2 | [A,,A,]3 [A,,A,] [A,,A,]2 | [D,A,]2 [D,A,]2 [D,A,]2 | %11
w: ~ ~ ~|~ ~|~ ~ ~|~ ~ ~|
 [A,,A,]2 [A,,C]2 [A,,A,]2 | !fermata![D,A,]4 [D,A,]2 | [B,,B,]2 [C,A,]2 [D,D]2 | %14
w: ~ ~ ~|~ ~|~ ~ ~|
 [E,C]2 !fermata![E,B,]2 [E,G,]2 | [E,G,]3 [E,B,] [E,G,]2 | [A,,E,A,]4 || z2 | z6 | %19
w: ~ ~ ~|~ ~ ~|~|||
 [E,E]2 [G,E]2 [B,E]2 | [E,E]4 z2 | z6 | [A,,A,]2 [C,A,]2 [E,B,]2 | B,4 E,2 | %24
w: Rest in Thy|love,||Rest in Thy|love, ~|
 [A,,A,]2 [A,,A,]2 [A,,A,]2 | [D,A,]2 [D,A,]2 [D,A,]2 | [A,,A,]3 [C,A,] [E,G,]2 | [A,,A,]6 | z6 | %29
w: ~ ~ ~|~ ~ ~|~ ~ ~|~||
 [E,E]2 [G,E]2 [B,E]2 | [E,E]4 E,2 | [E,B,]2 [E,C]2 [E,D]2 | [A,C-]6 | [A,,C]4 |] %34
w: Rest in Thy|love, ~|~ ~ ~|~|love,|
V:4
 x2 | x6 | x6 | x6 | x6 | x6 | x6 | x6 | x4 E,2 | x6 | x6 | x6 | x6 | x6 | x6 | x6 | x4 || x2 | %18
w: ||||||||||||||||||
 x6 | x6 | x6 | x6 | x6 | B,4 E,2 | x6 | x6 | x6 | x6 | x6 | x6 | x4 E,2 | x6 | A,2 E,2 C,2 | x4 |] %34
w: ||||||||||||||* in Thy||

